X:86
T:Master Andrew Grant
R:Reel
C:A.F. Skinner
S:MacDonald - Skye Collection
N:pg.24
M:C
L:1/8
K:A Mix
e>d|c>A A/A/A (EA) A/A/A|(cA) A/A/A a2 (ed)|c>A A/A/A EAA=c|BA =Gf =g2 (ed)|
c>A A/A/A (EA) A/A/A|(cA) A/A/A a2 (e/f/=g)|af=ge fde=c|B>G G/G/G g2||
cB|Aaga edcB|Aaga e2 d/c/B|Aaga ef=ge|=gagd B=GGB|
Aaga edcB|Aaga e2 (d/f/=g)|Af=ge =fde=c|B>=G G/G/G g2||
